X: 847
T: the Harvest Home   #2
R: hornpipe
%S: s:3 b:10(6+4)
B: Francis O'Neill: "The Dance Music of Ireland" (1907) #847
Z: Frank Nordberg - http://www.musicaviva.com
F: http://www.musicaviva.com/abc/tunes/england/oneill-1001/0847/oneill-1001-0847-1.abc
N: Compacted via repeats and multiple endings [JC]
N: Compacted by using labels and play order [JC]
P: Play (A1A2)x2 + (BA2)x2
M: C|
L: 1/8
K: D
(AF) "^A" | DAFA DAFA | defe dcBA |[1,3 eAfA gAfA | edcB AGFE :|[2,4 dAFA fgec | d2 d2 d2 :|
"^B"|: (cd) | e>A (3AAA f>A (3AAA | e>A (3AAA f>A (3AAA | eAfA gAfA | (3efe (3dcB (3ABA (3GF"^->A2"Ey |]
